X: 26080
T: McDonagh's
R: reel
M: 4/4
K: Dmajor
defd A2 (3AAA|(cdg fedc|defd A2 (3ABc|1 dBAG ADDA:|2 dBAB cded||
adfd Adfd|Acec fdec|adfd Adfd|faag fedB|
Aafd adfd|Acef gfec|defg a2 (3aaf|gfeg fddA||

